64x64/apps/wavebox.svg

<svg xmlns="http://www.w3.org/2000/svg" width="64" height="64" version="1.1">
 <circle style="opacity:0.2" cx="32" cy="33" r="28"/>
 <circle style="fill:#00aef0" cx="32" cy="32" r="28"/>
 <path style="opacity:0.2" d="m 30,13.808594 -1.191406,0.375 L 14,18.808594 v 8.90625 L 21.832032,32.613282 14,36.53125 v 8.835938 L 28.398438,51.664062 30,52.367188 v -8.73047 L 23.425782,40.757812 30,37.46875 v -9.1875 L 23.5,24.21875 30,22.1875 Z m 4,0 V 22.1875 l 6.5,2.03125 -6.5,4.0625 v 9.1875 L 40.574218,40.757812 34,43.636718 v 8.73047 L 35.601562,51.664062 50,45.367188 V 36.53125 L 42.167968,32.613282 50,27.714844 v -8.90625 l -14.808594,-4.625 z"/>
 <path style="fill:#f4f4f7" d="m 30,12.808594 -1.191406,0.375 L 14,17.808594 v 8.90625 L 21.832032,31.613282 14,35.53125 v 8.835938 L 28.398438,50.664062 30,51.367188 v -8.73047 L 23.425782,39.757812 30,36.46875 v -9.1875 L 23.5,23.21875 30,21.1875 Z m 4,0 V 21.1875 l 6.5,2.03125 -6.5,4.0625 v 9.1875 L 40.574218,39.757812 34,42.636718 v 8.73047 L 35.601562,50.664062 50,44.367188 V 35.53125 L 42.167968,31.613282 50,26.714844 v -8.90625 l -14.808594,-4.625 z"/>
 <path style="opacity:0.2;fill:#f4f4f7" d="M 32 4 A 28 28 0 0 0 4 32 A 28 28 0 0 0 4.0175781 32.492188 A 28 28 0 0 1 32 5 A 28 28 0 0 1 59.974609 32.492188 A 28 28 0 0 0 60 32 A 28 28 0 0 0 32 4 z"/>
</svg>

<svg xmlns="http://www.w3.org/2000/svg" width="64" height="64"><circle style="opacity:.2" cx="32" cy="33" r="28"/><circle style="fill:#00aef0" cx="32" cy="32" r="28"/><path style="opacity:.2" d="m30 13.809-1.191.375L14 18.809v8.906l7.832 4.898L14 36.531v8.836l14.398 6.297 1.602.703v-8.73l-6.574-2.88L30 37.47V28.28l-6.5-4.062 6.5-2.032zm4 0v8.379l6.5 2.03-6.5 4.063v9.188l6.574 3.289L34 43.637v8.73l1.602-.703L50 45.367v-8.836l-7.832-3.918L50 27.715v-8.906l-14.809-4.625z"/><path style="fill:#f4f4f7" d="m30 12.809-1.191.375L14 17.809v8.906l7.832 4.898L14 35.531v8.836l14.398 6.297 1.602.703v-8.73l-6.574-2.88L30 36.47V27.28l-6.5-4.062 6.5-2.032zm4 0v8.379l6.5 2.03-6.5 4.063v9.188l6.574 3.289L34 42.637v8.73l1.602-.703L50 44.367v-8.836l-7.832-3.918L50 26.715v-8.906l-14.809-4.625z"/><path style="opacity:.2;fill:#f4f4f7" d="M32 4A28 28 0 0 0 4 32a28 28 0 0 0 .018.492A28 28 0 0 1 32 5a28 28 0 0 1 27.975 27.492A28 28 0 0 0 60 32 28 28 0 0 0 32 4z"/></svg>
